X: 37
T:Nae Luck Aboot the Hoose (For Thady U Gander)
% Nottingham Music Database
S:via PR
M:4/4
L:1/4
K:A
|:e/2|"A"a/2f/2e/2c/2 "D"d/2e/2f/2g/2|"A"a/2f/2e/2c/2 "E"BB/2e/2|\
"A"a/2f/2e/2c/2 "D"d/2e/2f/2g/2|"E7"e/2d/2c/2B/2"A"A-A/2:|
B/2|"A"cc/2A/2 "D"dd/2B/2|"A"cc/2A/2 "E"BB/2e/2|\
"A"c/2c/2c/2A/2 "D"d/2e/2f/2a/2|"E"e/2d/2c/2B/2 "A"A(A/2B/2)|
(3"A"c/2d/2c/2c/2A/2 (3"Bm"d/2e/2d/2d/2B/2|(3"A"c/2d/2c/2c/2A/2 "E"BB/2e/2|\
(3"A"c/2d/2c/2c/2A/2 "D"d/2e/2f/2a/2|"E7"e/2d/2c/2B/2 "A"A-A/2||<end>
<start>
